src/fonts/icomoon/icons/arrow-down.svg

<svg width="1024" height="594" viewBox="0 0 1024 594" fill="none" xmlns="http://www.w3.org/2000/svg">
<g clip-path="url(#clip0)">
<path d="M906.683 39.594C928.277 18 963.289 18 984.883 39.594C1006.48 61.188 1006.48 96.2 984.883 117.794L554.781 547.898C542.42 560.256 525.662 565.543 509.54 563.754C493.428 565.533 476.683 560.245 464.324 547.893L34.2216 117.791C12.6316 96.196 12.6316 61.185 34.2216 39.59C55.8176 17.996 90.8276 17.996 112.423 39.59L509.554 436.72L906.681 39.593L906.683 39.594Z" fill="black"/>
</g>
<defs>
<clipPath id="clip0">
<rect width="593" height="1024" fill="white" transform="translate(1024 0.5) rotate(90)"/>
</clipPath>
</defs>
</svg>

<svg width="1024" height="594" fill="none" xmlns="http://www.w3.org/2000/svg"><g clip-path="url(#clip0)"><path d="M906.683 39.594c21.594-21.594 56.606-21.594 78.2 0 21.597 21.594 21.597 56.606 0 78.2L554.781 547.898c-12.361 12.358-29.119 17.645-45.241 15.856-16.112 1.779-32.857-3.509-45.216-15.861L34.222 117.791c-21.59-21.595-21.59-56.606 0-78.201 21.596-21.594 56.606-21.594 78.201 0l397.131 397.13L906.681 39.593l.002.001z" fill="#000"/></g><defs><clipPath id="clip0"><path fill="#fff" transform="rotate(90 511.75 512.25)" d="M0 0h593v1024H0z"/></clipPath></defs></svg>
